X:3
T:The Mulberry Bush
M:6/8
K:G
L:1/4
Q:1/2=100
 G/2G/2G/2GB/2 | dB/2GG/2 | AA/2AG/2 | FE/2D3/2 | G/2G/2G/2GB/2 | dB/2GG/2 | AA/2 D/2E/2F/2 | G3/2G |]
